X:1
T:Romberg, CM
T:Romberg, CM
T:Thomas Hastings, 1846
T:Public Domain Courtesy of the Cyber Hymnal™
C:Thomas Hastings, 1846
Z:Public Domain
Z:Courtesy of the Cyber Hymnal™
%%score ( 1 2 ) ( 3 4 )
L:1/8
M:3/4
K:Ab
V:1 treble 
V:2 treble 
V:3 bass 
V:4 bass 
V:1
 [CA]2 | [Ec]4 [DB]2 | [CA]4 [DF]2 | E4 [DE]2 | [CE]4 [EA]2 | [DF]4 [FB]2 | (B2 A2) [EG]2 | %7
 [EA]4 A2 | [Ae]4 [Gd]2 | [Ac]4 [GB]2 | [FA]4 [=EG]2 | F4 F2 | (d2 c2) [FB]2 | (A2 G2) [EB]2 | %14
 [EA]4 |] %15
V:2
 x2 | x6 | x6 | (C2 B,2) x2 | x6 | x6 | E4 x2 | x4 A2 | x6 | x6 | x6 | F4 F2 | F4 x2 | E4 x2 | %14
 x4 |] %15
V:3
 [A,,A,]2 | A,4 [E,G,]2 | [F,A,]4 [D,A,]2 | (A,2 G,2) [E,B,]2 | [A,,A,]4 [C,A,]2 | %5
 [D,A,]4 [B,,D]2 | (D2 C2) [E,B,]2 | [A,C]4 [A,C]2 | [CE]4 [B,E]2 | [A,E]4 [E,D]2 | [F,C]4 (CB,) | %11
 [D,A,]4 [D,A,]2 | ([B,,F]2 [C,E]2) [D,D]2 | (C2 B,2) [E,D]2 | [A,,C]4 |] %15
V:4
 x2 | A,4 x2 | x6 | E,4 x2 | x6 | x6 | E,4 x2 | x6 | x6 | x6 | x4 C,2 | x6 | x6 | E,4 x2 | x4 |] %15

